X:1
T:Then was ther one
T:Christopher Tye
T:Source : Actes of the Apostles---Chapter X---1553 Editor : André Vierendeels (12/01/17).
T:Then was ther one
T:©
T:©
T:©
C:Christopher Tye
Z:©
%%score [ 1 [ 2 3 ] 4 ]
L:1/8
Q:1/4=100
M:4/4
K:C
V:1 treble nm="Soprano" snm="S"
V:2 treble-8 nm="Tenor 1" snm="T 1"
V:3 treble-8 nm="Tenor 2" snm="T 2"
V:4 bass nm="Bass" snm="B"
V:1
 z2 E2 E2 G2 | F2 E2 A3 A | ^G2 G2 c2 B2 | A3 A ^G4 |"^-natural" z2 G2 B2 G2 | A2 A2 A3 A | %6
w: Then was ther|one Cor- ne- li-|us, which dwelt at|Ce- sa- rie,|a cap- tayne|good and gra- ci-|
"^-natural" ^G2 E2 G2 ^F2 | E3 E ^C4 | z2 E2 A3 A | ^G2 B2 A2 A2 | ^G2 e2 d2 c2 | c2 B2 c4 | z8 | %13
w: ous, of those of|I ta- lye|de- vout he|was, and God dyd|feare so dyd his|fa- me- lye,||
 z4 z2 G2 | A2 c2 B2 B2 | c2 e2 d2 d2 | c2 c2 BA A2- | A^G/^F/ G2 A4- | A8 |] %19
w: in|al- mes great and|in pray- er a-|bode con- ti- nu al-|* * * * lye.|_|
V:2
 z2 c2 B3 c | d2 e2 e2 d2 | e2 e2 c2 g2 | e2 e2 e4 | z2 e2 d2 e2 | c2 f2 e2 d2 | e2 c2 Bc dA | %7
w: Then was ther|one Cor- ne- li-|us, which dwelt at|Ce- sa- rie,|a cap- tayne|good and gra- ci-|ous of those of I- *|
 cd B2 A4 | z2 c2 e3 e | e2 e2 e2 d2 |"^-natural" e2 g2 g2 e2 | g3 f e4 | c2 d2 f2 e2- | %13
w: ta- * * lye|de- vout he|was, and God dyd|feare so dyd his|fa- me- lye,|in al- mes great|
 e fdd e2 g2 | f2 e2 g4 | z2 c2 d2 f2 | ef g2 gfed | ee e2 ^c4- | c8 |] %19
w: _ and _ in pray- *|* * er|a- bode, con-|ti- * nu- al- lye, _ co-|ti- nu- al- lye.|_|
V:3
 z2 A2 G3 G | A2 c2 A3 B | B2 B2 e2 d2 | c3 c B4 | z2 B2 B2 B2 | A2 d2 c2 A2 | %6
w: Then was ther|one Cor- ne- li-|us, which dwelt at|Ce- sa- rie,|a cap- tayne|good and gra- ci-|
"^-natural" B2 A2 G2 A2 | A2 ^G2 A4 | z2 A2 c3 c | B2 B2 c2 A2 | B2 c2 B2 cd | ef d2 c4 | %12
w: ous of those of|I- ta- lye|de- vout he|was, and God dyd|feare so dyd his _|fa- * me- lye,|
 z2 G2 A2 c2 | B2 A2 c2 e2 | d2 c2 d2 G2 | A2 c2 BBAB | cd e2 dcBA | B4 A4- | A8 |] %19
w: in al- mes|great and in pray-|* er _ a-|bode con- ti- nu- al- ly,|con- * ti- nu- * * *|al- lye.|_|
V:4
 z2 A,,2 E,3 E, | D,2 C,2 F,3 F, | E,2 E,2 A,,2 B,,2 | C,2 A,,2 E,4 | z2 E,2 G,2 E,2 | %5
w: Then was ther|one Cor- ne- li-|us, which dwelt at|Ce- sa- rie,|a cap- tayne|
 F,2 D,2 A,2 F,2 | E,2 A,,2 E,2 D,2 | E,2 E,2 A,,4 | z2 A,,2 A,,3 A,, | %9
w: good and gra- ci-|ous of those of|I- ta- lye|de- vout he|
"^-natural" E,2 G,2 F,2 F,2 |"^-natural" E,2 C,2 G,2 A,2 | G,2 G,2 C,4 | z4 z2 C,2 | %13
w: was, and God dyd|feare so dyd his|fa- me- lye,|in|
 D,2 F,2 E,2 E,2 | F,2 A,2 G,>F, E,D, | C,2 C,2 G,2 D,2 | A,2 C,2 D,2 F,2 | E,E, E,2 A,,4- | %18
w: al- mes great and|in pray- * * * *|er and i, prau-|er a- bode con-|ti- nu- al- lye.|
 A,,8 |] %19
w: _|

